X: 202
T: Shier yue huadiao
L: 1/16
M: 3/4
K: Bb
b2 b gf4 [I:setbarnb 1]| 
g b g fd4 | 
d' f' d' c' d' f' d' c' | 
b a g2 f3 g | 
b2 g f b2 b2 | 
g2 d'2 g2 f2 | 
b2 g f d2 c2 | 
B4B4 | 
b4c' f' a2 | 
g2 g2f4 | 
b2 g fg4 | 
e2 d2 c2 z2 | 
b12- | 
[M:2/4]b2 d'2 c'2 d'2 | 
b2 c' d'b4 | 
g b g fg4 | 
e2d4c d | 
B8 |]

@@@ Tune index: 9076
